X:94
T:Govenor Littleton's Delight
M:2/4
L:1/8
B:Thompson's Compleat Collection of 200 Favourite Country Dances, vol. 2 (London, 1765)
Z:Transcribed and edited by Flynn Titford-Mock, 2007
Z:abc's:AK/Fiddler's Companion
K:G
B/c/ | dBGg | "tr"e2 dg | cdBc | A/G/F/E/ DB/c/ | dBGg | "tr"e2 dg | faA^c | d3 :|
|: d | BdGg | egBg | BdGB | A/G/F/E/ Dd | BdGg | egdg | BgAf | [D3B3g3] :|

